X: 3091
T: Bear Dance, The
R: polka
M: 2/4
K: Aminor
|:eA Ae/d/|eA Ac/d/|ef/e/ dc|d2- dc/d/|
ee d/c/B|cc B/A/G|Ac B/A/G|A4:|
|:A/B/c A/B/c|BG G/G/G/G/|A/B/c A/B/c|d2- dc/d/|
ee d/c/B|cc B/A/G|Ac B/A/G|A4:|

